X:3647
T:Let's Sing
O:england
M:4/4
L:1/8
Q:1/4=120
K:C
V:1
"C" c cc ce4 |cc cc e3 c|"Bbm" f2 e2 ^ce/^c/ c_B |"C" f2 e6
|"C" cc cc e4 |cc cc e3 c|"Bbm" f2 e2 ^ce/^c/ c_B |"C" ^c2 c6  |:
"Fm" ^g^g ^g^g ^g_b/^g/ ^g^g |"C" gg gg g^g/g/ fe |"Bbm" fe fe f^g gf |"C" g2 e4 c2 |
"Fm" ^g^g ^g^g ^g_b/^g/ ^g^g |"C" gg gg g^g/g/ fe |"Bbm" f3 _Bf2 e^c |"C" ^c2 c6 :|


